src/assets/duotone/VideoAdd.svg

<?xml version="1.0" encoding="UTF-8"?>
<svg width="24" height="24" viewBox="0 0 24 24" xmlns="http://www.w3.org/2000/svg">
 <path d="m22 7.81v7.89c0-0.01-0.01-0.02-0.02-0.03-0.04-0.06-0.09-0.12-0.14-0.17-0.01-0.01-0.02-0.03-0.03-0.04-0.81-0.9-2-1.46-3.31-1.46-1.26 0-2.41 0.52-3.23 1.36-0.79 0.81-1.27 1.92-1.27 3.14 0 0.84 0.24 1.64 0.65 2.32 0.22 0.37 0.5 0.71 0.82 0.99 0.02 0.01 0.03 0.02 0.04 0.03 0.05 0.05 0.1 0.09 0.16 0.14h0.01c0.01 0.01 0.02 0.02 0.03 0.02h-7.9c-3.64 0-5.81-2.17-5.81-5.81v-8.38c0-0.51 0.04-1 0.13-1.45 0.51-2.75 2.54-4.35 5.64-4.36h8.46c3.1 0.01 5.13 1.61 5.64 4.36 0.09 0.45 0.13 0.94001 0.13 1.45z" opacity=".4"/>
 <path d="m22 7.81v0.04999h-20v-0.04999c0-0.51 0.04-1 0.13-1.45h5.64v-4.36h1.5v4.36h5.46v-4.36h1.5v4.36h5.64c0.09 0.45 0.13 0.94001 0.13 1.45z"/>
 <path d="m22 15.7c0-0.01-0.01-0.02-0.02-0.03-0.04-0.06-0.09-0.12-0.14-0.17-0.01-0.01-0.02-0.03-0.03-0.04-0.81-0.9-2-1.46-3.31-1.46-1.26 0-2.41 0.52-3.23 1.36-0.79 0.81-1.27 1.92-1.27 3.14 0 0.84 0.24 1.64 0.65 2.32 0.22 0.37 0.5 0.71 0.82 0.99 0.02 0.01 0.03 0.02 0.04 0.03 0.05 0.05 0.1 0.09 0.16 0.14h0.01c0.01 0.01 0.02 0.02 0.03 0.02 0.75 0.63 1.72 1 2.79 1 1.64 0 3.07-0.88 3.85-2.18 0.23-0.39 0.41-0.82 0.52-1.27 0.09-0.34 0.13-0.69 0.13-1.05 0-1.06-0.37-2.04-1-2.8zm-1.82 3.53h-0.93v0.97c0 0.41-0.34 0.75-0.75 0.75s-0.75-0.34-0.75-0.75v-0.97h-0.93c-0.41 0-0.75-0.34-0.75-0.75s0.34-0.75 0.75-0.75h0.93v-0.89c0-0.41 0.34-0.75 0.75-0.75s0.75 0.34 0.75 0.75v0.89h0.93c0.41 0 0.75 0.34 0.75 0.75s-0.33 0.75-0.75 0.75z"/>
</svg>

<svg width="24" height="24" viewBox="0 0 24 24"  xmlns="http://www.w3.org/2000/svg">
<path opacity="0.4" d="M22 7.81V15.7C22 15.69 21.99 15.68 21.98 15.67C21.94 15.61 21.89 15.55 21.84 15.5C21.83 15.49 21.82 15.47 21.81 15.46C21 14.56 19.81 14 18.5 14C17.24 14 16.09 14.52 15.27 15.36C14.48 16.17 14 17.28 14 18.5C14 19.34 14.24 20.14 14.65 20.82C14.87 21.19 15.15 21.53 15.47 21.81C15.49 21.82 15.5 21.83 15.51 21.84C15.56 21.89 15.61 21.93 15.67 21.98C15.67 21.98 15.67 21.98 15.68 21.98C15.69 21.99 15.7 22 15.71 22H7.81C4.17 22 2 19.83 2 16.19V7.81C2 7.3 2.04 6.80999 2.13 6.35999C2.64 3.60999 4.67 2.01 7.77 2H16.23C19.33 2.01 21.36 3.60999 21.87 6.35999C21.96 6.80999 22 7.3 22 7.81Z" />
<path d="M22 7.81V7.85999H2V7.81C2 7.3 2.04 6.80999 2.13 6.35999H7.77V2H9.27V6.35999H14.73V2H16.23V6.35999H21.87C21.96 6.80999 22 7.3 22 7.81Z" />
<path d="M22 15.7C22 15.69 21.99 15.68 21.98 15.67C21.94 15.61 21.89 15.55 21.84 15.5C21.83 15.49 21.82 15.47 21.81 15.46C21 14.56 19.81 14 18.5 14C17.24 14 16.09 14.52 15.27 15.36C14.48 16.17 14 17.28 14 18.5C14 19.34 14.24 20.14 14.65 20.82C14.87 21.19 15.15 21.53 15.47 21.81C15.49 21.82 15.5 21.83 15.51 21.84C15.56 21.89 15.61 21.93 15.67 21.98C15.67 21.98 15.67 21.98 15.68 21.98C15.69 21.99 15.7 22 15.71 22C16.46 22.63 17.43 23 18.5 23C20.14 23 21.57 22.12 22.35 20.82C22.58 20.43 22.76 20 22.87 19.55C22.96 19.21 23 18.86 23 18.5C23 17.44 22.63 16.46 22 15.7ZM20.18 19.23H19.25V20.2C19.25 20.61 18.91 20.95 18.5 20.95C18.09 20.95 17.75 20.61 17.75 20.2V19.23H16.82C16.41 19.23 16.07 18.89 16.07 18.48C16.07 18.07 16.41 17.73 16.82 17.73H17.75V16.84C17.75 16.43 18.09 16.09 18.5 16.09C18.91 16.09 19.25 16.43 19.25 16.84V17.73H20.18C20.59 17.73 20.93 18.07 20.93 18.48C20.93 18.89 20.6 19.23 20.18 19.23Z" />
</svg>
